X:1
T:Braes of Letterfourie, The
T:Braes of Letterfourie, The
T:Alexander Walker
C:Alexander Walker
L:1/8
M:4/4
K:A
V:1 treble 
V:1
 A | c<ee>c d/c/B/A/ F2 | E>AE<C B,2 B>d | c<ee>c d/c/B/A/ F2 | E>AG>B (A2 A)A | %5
 c<ee>c d/c/B/A/ F2 | E>AE<C B,2 B>d | c<ee>c (d/c/B/A/) c2 | B<EG>E A2 A || B | %10
 A/A/A (d/c/B/A/) e<Ac>A | B>Ec>E d>EB>E | A/A/A (d/c/B/A/) e>Ac>A | B<EG>E A2 A>E | %14
 A/A/A (d/c/B/A/) e>Ac>A | B<Ec>E d>EB>E | A,/A,/A, E>C F>DE>C | B,<BE>G (A2 A) || %18

